<?xml version="1.0" ?>
<map version="1.10" tiledversion="1.12.2" orientation="orthogonal" renderorder="right-down" width="56" height="23" tilewidth="32" tileheight="32" infinite="0" nextlayerid="8" nextobjectid="13">
  
 
  <tileset firstgid="1" source="../tileset/tilesets/parede_variantes.tsx"/>
  <tileset firstgid="97" source="../tileset/tilesets/chao_variantes.tsx"/>
  <tileset firstgid="193" source="../tileset/tilesets/decoracao_tileset.tsx"/>
  <tileset firstgid="197" source="../tileset/tilesets/The Sidescroller's Dungeon Tiles 32x32.tsx"/>
  <tileset firstgid="596" source="../tileset/tilesets/Platformer Asset All K.tsx"/>
  <tileset firstgid="2458" source="../tileset/tilesets/Dungeon Tile Set 32px.tsx"/>
  <tileset firstgid="2728" source="../tileset/tilesets/Torch Sprite Sheet 32x64.tsx"/>
  <layer id="3" name="fundo" width="56" height="23">
    
  
    <data encoding="csv">
97,98,99,100,101,102,103,104,105,106,107,108,97,98,99,100,101,102,103,104,105,106,107,108,97,98,99,100,2543,102,103,104,105,106,107,108,97,98,99,100,101,2512,2541,104,105,106,107,108,97,2542,2497,100,101,102,103,104,
109,110,111,112,2512,114,115,2481,117,118,119,120,109,110,111,112,113,114,115,116,117,118,119,120,109,110,2543,2543,2543,114,115,116,117,118,2482,2511,2511,2541,2542,2543,2543,2496,2526,2527,2526,2511,119,2542,2511,2527,2526,2511,2527,2527,2541,2542,
121,122,123,2543,2481,2542,2526,2542,129,130,2543,2512,121,2511,123,124,125,126,127,128,129,130,131,132,2543,2543,2570,2543,2543,2543,2543,2543,2511,2541,2496,2542,2542,2527,2496,2526,2482,2511,2542,2482,2496,2511,2496,2542,2512,2526,2497,2512,2541,2481,2497,2527,
133,134,135,2543,2530,2526,2526,2497,2543,2543,2543,2530,2526,2511,2482,2543,2543,2530,2543,140,141,142,143,144,2543,2482,2496,2570,2482,2481,2481,2527,2527,2542,2481,2526,2543,2481,2481,2541,2511,2541,2511,2527,2496,2511,2496,2482,2527,2481,2512,2541,2497,2511,2542,2527,
145,146,147,2543,2530,2496,2497,2541,2543,2543,2530,2530,2526,2512,2543,2543,2572,2572,2572,2497,153,154,155,2543,2543,2542,2541,2526,2481,2542,2481,2481,2543,2543,2481,2572,2572,2482,2541,2481,2511,2497,2497,2481,2511,2482,2526,2526,2527,2545,2545,2481,2511,2542,2511,2541,
157,2481,2526,2530,2530,2530,2511,2530,2530,2530,2530,2481,2481,2543,2543,2572,2511,2530,2497,2512,2543,166,167,2527,2542,2527,2570,2542,2481,2512,2512,2512,2512,2482,2572,2572,2511,2496,2481,2481,2541,2541,2497,2572,2497,2543,2527,2497,2545,2545,2512,2527,2527,2511,2482,2542,
169,2482,171,2530,2527,2482,2482,2530,2530,2530,2530,2526,2543,2543,2543,2572,2496,2530,2496,2543,2481,2496,2482,2542,2512,2481,2526,2530,2570,2481,2572,2572,2572,2572,2572,2496,2481,2543,2541,2511,2482,2541,2545,2572,2481,2542,2542,2542,2545,2481,2527,2496,2481,2497,2511,2481,
2496,2481,2541,2481,2496,2541,2512,2543,2543,2511,2541,2497,2496,2543,2496,2572,2530,2530,2512,2482,2511,2527,2512,2496,2496,2543,2530,2530,2526,2526,2572,2512,2572,2572,2542,2526,2511,2481,2512,2542,2497,2545,2545,2541,2542,2541,2541,2481,2545,2512,2512,2541,2482,2545,2526,2512,
2511,98,2512,2482,2512,2511,2496,2543,2511,2512,2496,2511,2496,2481,2482,2481,2530,2497,2541,2496,2526,2512,2497,2543,2570,2512,2481,2496,2512,2512,2526,2526,2497,2572,2572,2572,2572,2497,2542,2541,2541,2545,2541,2542,2541,2542,2572,2512,2496,2541,2542,2545,2545,2545,2526,2542,
2542,2482,2496,2497,2541,2527,2482,2482,2496,2497,2512,2511,2497,2512,2511,2482,2543,2511,2512,2543,2497,2511,2543,2482,2530,2541,2482,2530,2543,2497,2543,2481,2572,2481,2482,2511,2511,2481,2512,2542,2482,2545,2545,2542,2496,2572,2572,2572,2527,2497,2545,2545,2545,2496,2512,2527,
2497,2543,2497,2512,2497,2481,2543,2496,2496,2511,2481,2512,2512,2511,2481,2496,2527,2481,2481,2482,2512,2543,2497,2530,2497,2543,2497,2543,2530,2496,2570,2511,2572,2542,2541,2526,2541,2511,2497,2481,2572,2572,2481,2541,2512,2572,2511,2545,2545,2545,2545,2545,2481,2526,2482,2543,
2543,2543,2543,2496,2481,2496,2482,2481,2482,2512,2511,2497,2512,2512,2527,2482,2481,2543,2512,2512,2482,2511,2496,2497,2482,2481,2497,2481,2543,2512,2481,2481,2511,2541,2526,2542,2526,2542,2511,2481,2541,2512,2541,2526,2481,2526,2481,2482,2482,2543,2545,2543,2496,2497,2496,2543,
145,2543,2543,2543,2542,2542,2482,152,2481,2511,2512,2527,2542,2512,2482,2481,2482,2482,2482,2496,2511,2511,2482,2497,2481,2496,2482,2482,2496,2530,2530,2526,2527,2512,2543,2527,2512,2497,2512,2542,2542,2526,2527,2511,2526,2497,2496,2545,2497,2526,2511,2541,2511,2511,2541,2543,
2543,2543,2543,2497,2541,2497,2511,2481,2496,2481,2512,2572,2497,2511,2511,2497,2481,2496,2497,2497,2542,2481,2511,2496,2482,2511,2497,2497,2526,2530,2541,2511,2526,2542,2511,2511,2481,2543,2497,2497,2526,2511,2543,2482,2541,2511,2542,2545,2541,2543,2542,2512,2481,2543,2496,2543,
2543,2482,2482,2496,2526,2511,2543,2497,2541,2497,2497,2541,2481,2496,2481,2496,2541,2542,2496,2541,2496,2512,2497,2541,2542,2541,2496,2496,2527,2482,2512,2496,2527,2527,2527,2512,2543,2512,2542,2527,2512,2543,2526,2481,2511,2496,2543,2545,2497,2543,2481,2526,2511,2496,2541,2497,
2526,2481,2542,2482,2511,2541,2481,2572,2481,2511,2512,2512,2527,2541,2526,2526,2497,2541,2527,2481,2541,2481,2542,2526,2526,2512,2527,2542,2497,2542,2542,2497,2527,2541,2541,2541,2481,2542,2541,2512,2527,2482,2496,2511,2543,2543,2481,2545,2545,2527,2512,2526,2482,2542,2541,2542,
2542,2481,2526,2572,2543,2512,2512,2541,2512,2542,2527,2542,2497,2496,2512,2541,2527,2542,2496,2481,2527,2542,2512,2481,2512,2527,2512,2543,2570,2482,2511,2511,2541,2496,2542,2526,2482,2482,2512,2527,2482,2541,2541,2543,2543,2543,2526,2526,2545,2526,2511,2497,2511,2481,2482,2541,
109,2572,2543,2572,2543,2527,2481,2541,2512,2482,2542,2511,2497,2496,2512,2482,2543,2511,2511,2527,2511,2542,2541,2526,2497,2543,2543,2543,2570,2526,2482,2526,2541,2496,2542,2511,2511,2512,2527,2482,2511,114,115,2543,117,2543,2542,2497,2482,2542,2512,2497,2527,2496,2527,2543,
2543,2543,2481,2481,2497,2496,2496,2497,2541,2512,2497,2543,2543,2511,2543,2543,2543,2497,2511,2527,2541,2542,2497,2543,2543,2543,2543,2543,2570,2572,2541,2512,2512,2497,2481,2482,2511,2496,2543,2543,125,2541,127,128,129,2527,2542,2511,2496,122,2527,2542,2496,2511,2527,2512,
133,134,2481,2541,2526,2496,139,140,2543,2543,143,144,2543,2543,135,136,2526,2482,2512,2541,2542,2512,143,144,133,134,135,136,137,138,2496,2527,2497,2511,2512,2482,2543,2543,2543,136,137,2497,139,140,2512,2542,2526,2527,2543,134,2543,2526,2511,2543,2543,2543,
145,146,147,2497,149,150,151,152,153,154,155,156,145,146,147,148,2497,2511,2481,2481,153,154,155,156,145,146,147,148,149,150,2496,2481,2526,2526,2481,156,145,146,147,148,149,2497,2481,2542,2572,2527,2527,2497,145,146,2543,2541,2497,2543,151,152,
157,158,159,160,161,162,163,164,165,166,167,168,157,158,159,2542,2482,2511,163,164,165,166,167,168,157,158,159,160,161,162,163,2541,2481,166,167,168,157,158,159,160,161,162,163,164,165,2527,2511,168,157,158,159,160,2527,162,163,164,
169,170,171,172,173,174,175,176,177,178,179,180,169,170,2526,2481,173,174,175,176,177,178,179,180,169,170,171,172,173,174,175,176,177,178,179,180,169,170,171,172,173,174,175,176,177,178,2481,180,169,170,171,172,173,174,175,176
</data>
    
 
  </layer>
  
 
  <layer id="7" name="escadas" width="56" height="23">
    
  
    <data encoding="csv">
0,0,0,0,0,0,0,0,0,0,0,0,0,0,0,0,0,0,0,0,0,0,0,0,0,0,0,0,0,0,0,0,0,0,0,0,0,0,0,0,0,0,0,0,0,0,0,0,0,0,0,0,0,0,0,0,
0,0,0,0,0,0,0,0,0,0,0,0,0,0,0,0,0,0,0,0,0,0,0,0,0,0,0,0,0,0,0,0,0,0,0,0,0,0,0,0,0,0,0,0,0,0,0,0,0,0,0,0,0,0,0,0,
0,0,0,0,0,0,0,0,0,0,0,0,0,0,0,0,0,0,0,0,0,0,0,0,0,0,0,0,0,0,0,0,0,0,0,0,0,0,0,0,0,0,0,0,0,0,0,0,0,0,0,0,0,0,0,0,
0,0,0,0,0,0,0,0,0,0,0,0,0,0,0,0,0,0,0,0,0,0,0,0,0,0,0,0,0,0,0,0,0,0,0,0,0,0,0,0,0,0,0,0,0,0,0,0,0,0,0,0,0,0,0,0,
0,0,0,0,0,0,0,0,0,0,0,0,0,0,0,0,0,0,0,0,0,0,0,0,0,0,0,0,0,0,0,0,0,0,0,0,0,0,0,0,0,0,0,0,0,0,0,0,0,0,0,0,0,0,0,0,
0,0,0,0,0,0,0,0,0,0,0,0,0,0,0,0,0,0,0,0,0,0,0,0,0,0,0,0,0,0,0,0,0,0,0,0,0,0,0,0,0,0,0,0,0,0,0,0,0,0,0,0,0,0,0,0,
0,0,0,0,0,0,0,0,0,0,0,0,0,0,0,0,0,0,0,0,0,0,0,0,0,0,0,0,0,0,0,0,0,0,0,0,0,0,0,0,0,0,0,0,0,0,0,0,0,0,0,0,0,0,0,0,
0,0,0,0,0,0,0,0,0,0,0,0,0,0,0,0,0,0,0,0,0,0,0,0,0,0,0,0,0,0,0,0,0,0,0,0,0,0,0,0,0,0,0,0,0,0,0,0,0,0,0,0,0,0,0,0,
0,0,0,0,0,0,0,0,0,0,0,0,0,0,0,0,0,0,0,0,0,0,0,0,0,0,0,0,0,0,0,0,0,0,0,0,0,0,0,0,0,0,0,0,0,0,0,0,0,0,0,0,0,0,0,0,
0,0,0,0,0,0,0,0,0,0,0,0,0,0,0,0,0,0,0,0,0,0,0,0,0,0,0,0,0,0,0,0,0,0,0,0,0,0,0,0,0,0,0,0,0,0,0,0,0,0,0,0,0,0,0,0,
0,0,2583,0,0,0,0,0,0,0,0,0,0,0,0,0,0,0,0,0,0,0,0,0,0,0,0,0,0,0,0,0,0,0,0,0,0,0,0,0,0,0,0,0,0,0,0,0,0,0,0,0,0,0,0,0,
0,0,2598,0,0,0,0,0,0,0,0,0,0,0,0,0,0,0,0,0,0,0,0,0,0,0,0,0,0,0,0,0,0,0,0,0,0,0,0,0,0,0,0,0,0,0,0,0,0,0,0,0,0,0,0,0,
0,0,2598,0,0,0,0,0,0,0,0,0,0,0,0,0,0,0,0,0,0,0,0,0,0,0,0,0,0,0,0,0,0,0,0,0,0,0,0,0,0,0,0,0,0,0,0,0,0,0,0,0,0,0,0,0,
0,0,2598,0,0,0,0,0,0,0,0,0,0,0,0,0,0,0,0,0,0,0,0,0,0,0,0,0,0,0,0,0,0,0,0,0,0,0,0,0,0,0,0,0,0,0,0,0,0,0,0,0,0,0,0,0,
0,0,2598,0,0,0,0,0,0,0,0,0,0,0,0,0,0,0,0,0,0,0,0,0,0,0,0,0,0,0,0,0,0,0,0,0,0,0,0,0,0,0,0,0,0,0,0,0,0,0,0,0,0,0,0,0,
0,0,2613,0,0,0,0,0,0,0,0,0,0,0,0,0,0,0,0,0,0,0,0,0,0,0,0,0,0,0,0,0,0,0,0,0,0,0,0,0,0,0,0,0,0,0,0,0,0,0,0,0,0,0,0,0,
0,0,2598,0,0,0,0,0,0,0,0,0,0,0,0,0,0,0,0,0,0,0,0,0,0,0,0,0,0,0,0,0,0,0,0,0,0,0,0,0,0,0,0,0,0,0,0,0,0,0,0,0,0,0,0,0,
0,0,2147486261,0,0,0,0,0,0,0,0,0,0,0,0,0,0,0,0,0,0,0,0,0,0,0,0,0,0,0,0,0,0,0,0,0,0,0,0,0,0,0,0,0,0,0,0,0,0,0,0,0,0,0,0,0,
0,0,2628,0,0,0,0,0,0,0,0,0,0,0,0,0,0,0,0,0,0,0,0,0,0,0,0,0,0,0,0,0,0,0,0,0,0,0,0,0,0,0,0,0,0,0,0,0,0,0,0,0,0,0,0,0,
0,0,0,0,0,0,0,0,0,0,0,0,0,0,0,0,0,0,0,0,0,0,0,0,0,0,0,0,0,0,0,0,0,0,0,0,0,0,0,0,0,0,0,0,0,0,0,0,0,0,0,0,0,0,0,0,
0,0,0,0,0,0,0,0,0,0,0,0,0,0,0,0,0,0,0,0,0,0,0,0,0,0,0,0,0,0,0,0,0,0,0,0,0,0,0,0,0,0,0,0,0,0,0,0,0,0,0,0,0,0,0,0,
0,0,0,0,0,0,0,0,0,0,0,0,0,0,0,0,0,0,0,0,0,0,0,0,0,0,0,0,0,0,0,0,0,0,0,0,0,0,0,0,0,0,0,0,0,0,0,0,0,0,0,0,0,0,0,0,
0,0,0,0,0,0,0,0,0,0,0,0,0,0,0,0,0,0,0,0,0,0,0,0,0,0,0,0,0,0,0,0,0,0,0,0,0,0,0,0,0,0,0,0,0,0,0,0,0,0,0,0,0,0,0,0
</data>
    
 
  </layer>
  
 
  <layer id="4" name="colisao" width="56" height="23">
    
  
    <data encoding="csv">
2,17,31,10,27,3,18,32,13,28,4,19,33,15,29,6,22,34,16,30,8,25,2,17,31,10,27,3,18,32,13,28,4,19,33,15,29,6,22,34,16,30,8,25,2,17,31,10,27,3,18,32,13,28,4,19,
30,8,25,2,17,31,10,27,3,18,32,13,28,4,19,33,15,29,6,22,34,16,30,8,25,2,17,31,10,27,3,18,32,13,28,4,19,33,15,29,6,22,34,16,30,8,25,2,17,31,10,27,3,18,32,13,
90,30,22,29,14,27,33,90,30,22,29,14,27,33,90,30,22,29,14,27,33,90,30,22,0,0,0,0,0,0,0,0,0,0,0,0,0,0,0,0,0,0,0,0,0,0,0,0,0,0,0,0,0,14,0,0,
15,29,6,0,0,0,0,8,25,0,0,0,0,27,3,0,0,0,0,4,19,33,15,29,0,0,0,0,0,0,0,0,0,0,0,0,0,0,0,0,0,0,0,0,0,0,0,0,0,0,0,0,0,2,0,0,
4,19,33,0,0,0,0,34,16,0,0,0,0,17,31,0,0,0,0,32,13,28,4,19,0,0,0,0,0,0,0,0,0,0,0,0,0,0,0,0,0,0,0,0,0,0,0,0,0,0,0,0,0,30,0,0,
32,13,28,0,0,0,0,29,6,0,0,0,0,8,25,0,0,0,0,27,3,18,32,13,0,0,0,0,0,0,0,0,0,0,0,0,0,0,0,0,0,0,0,0,0,0,0,0,0,0,0,0,0,22,0,0,
27,3,18,0,0,0,0,19,33,0,0,0,0,34,16,0,0,0,0,17,31,10,27,3,0,0,0,0,0,0,0,0,0,0,0,0,0,0,0,0,0,0,0,0,0,0,0,0,0,0,0,0,0,15,0,0,
17,31,10,0,0,0,0,13,28,0,0,0,0,29,6,0,0,0,0,8,25,2,17,31,0,0,0,0,0,0,0,0,0,0,0,0,0,0,0,0,0,0,0,0,0,0,0,0,0,0,0,0,0,4,0,0,
8,25,2,0,0,0,0,3,18,0,0,0,0,19,33,0,0,0,0,34,16,30,8,25,0,0,0,0,0,0,0,0,0,0,0,0,0,0,0,0,0,0,0,0,0,0,0,0,0,0,0,0,0,32,0,0,
90,30,22,29,2595,2596,33,90,30,22,29,14,27,33,90,30,22,29,14,27,33,90,30,22,0,0,0,0,0,0,0,0,0,0,0,0,0,0,0,0,0,0,0,0,0,0,0,0,0,0,0,0,0,14,0,0,
17,0,0,0,0,0,0,0,0,0,0,0,0,0,0,0,0,0,0,0,0,0,0,0,0,0,0,0,0,0,0,0,0,0,0,0,0,0,0,0,0,0,0,0,0,0,0,0,0,0,0,0,0,17,0,0,
17,0,0,0,0,0,0,0,0,0,0,0,0,0,0,0,0,0,0,0,0,0,0,0,0,0,0,0,0,0,0,0,0,0,0,0,0,0,0,0,0,0,0,0,0,0,0,0,0,0,0,0,0,8,0,0,
17,2595,2595,19,90,30,22,29,14,27,33,90,30,22,29,14,27,33,90,30,22,29,14,27,33,90,30,22,29,14,27,33,90,30,22,29,14,27,33,90,30,0,0,0,0,0,0,0,0,0,0,0,0,90,0,0,
17,0,0,19,28,4,19,33,15,29,6,22,34,16,30,8,25,2,17,31,10,27,3,18,32,13,28,4,19,33,15,29,6,22,34,16,30,8,25,2,17,0,0,0,0,0,0,0,0,0,0,0,0,29,0,0,
17,0,0,0,0,0,0,0,0,0,0,0,0,0,0,0,0,0,0,0,0,0,0,0,0,0,0,0,0,0,0,0,0,0,0,0,0,0,0,0,7,7,0,0,0,0,0,0,0,0,0,0,0,22,0,0,
17,0,0,0,0,0,0,0,0,0,0,0,0,0,0,0,0,0,0,0,0,0,0,0,0,0,0,0,0,0,0,0,0,0,19,33,15,29,6,22,34,16,30,8,25,2,17,0,0,0,0,0,0,0,0,0,
17,0,0,0,0,0,0,0,0,0,0,0,0,0,0,0,0,0,0,0,0,0,0,0,0,0,0,0,0,0,0,0,0,0,13,28,4,19,33,15,29,6,22,34,16,30,7,7,0,0,0,0,0,0,0,0,
17,0,0,0,0,0,0,0,0,0,0,0,0,0,0,0,0,0,0,0,0,0,0,0,0,0,0,0,0,0,0,0,0,0,0,0,0,0,0,7,7,7,7,7,7,7,7,7,0,0,0,0,0,0,0,0,
29,0,0,0,0,0,0,0,0,0,0,0,0,0,0,0,0,0,0,0,0,0,0,0,0,0,0,0,0,0,0,0,0,0,0,0,0,0,0,7,7,7,7,7,7,7,7,7,22,34,16,0,0,0,0,0,
29,14,27,33,90,30,22,29,14,27,33,90,30,22,29,14,27,33,90,30,22,29,14,27,33,90,30,22,29,14,27,33,90,30,22,29,14,27,33,90,30,22,7,7,27,33,90,30,22,29,14,27,33,90,30,22,
14,27,33,90,30,22,29,14,27,33,90,30,22,29,14,27,33,90,30,22,29,14,27,33,90,30,22,29,14,27,33,90,30,22,29,14,27,33,90,30,22,29,14,27,33,90,30,22,29,14,27,33,90,30,22,29,
27,33,90,30,22,29,14,27,33,90,30,22,29,14,27,33,90,30,22,29,14,27,33,90,30,22,29,14,27,33,90,30,22,29,14,27,33,90,30,22,29,14,27,33,90,30,22,29,14,27,33,90,30,22,29,14,
33,90,30,22,29,14,27,33,90,30,22,29,14,27,33,90,30,22,29,14,27,33,90,30,22,29,14,27,33,90,30,22,29,14,27,33,90,30,22,29,14,27,33,90,30,22,29,14,27,33,90,30,22,29,14,27
</data>
    
 
  </layer>
  
 
  <layer id="5" name="decoracao" width="56" height="23">
    
  
    <data encoding="csv">
0,0,0,0,0,0,0,0,0,0,0,0,0,0,0,0,0,0,0,0,0,0,0,0,0,0,0,0,0,0,0,0,0,0,0,0,0,0,0,0,0,0,0,0,0,0,0,0,0,0,0,0,0,0,0,0,
0,0,0,0,0,0,0,0,0,0,0,0,0,0,0,0,0,0,0,0,0,0,0,0,0,0,0,0,0,0,0,0,0,0,0,0,0,0,0,0,0,0,0,0,0,0,0,0,0,0,0,0,0,0,0,0,
0,0,0,0,0,0,0,0,0,0,0,0,0,0,0,0,0,0,0,0,0,0,0,0,0,0,0,0,0,0,0,0,0,0,0,0,0,0,0,0,0,0,0,0,0,0,0,0,0,0,0,0,0,0,0,0,
0,0,0,0,0,0,0,0,0,0,0,0,0,0,0,0,0,0,0,0,0,0,0,0,0,0,0,0,0,0,0,0,0,0,0,0,0,0,0,0,0,0,0,0,0,0,0,0,0,0,0,0,0,0,0,0,
0,0,0,2642,2643,2644,2640,0,0,2642,2643,2643,2644,0,0,0,0,2658,0,0,0,0,0,0,0,0,0,0,0,0,0,0,0,0,0,0,2693,2694,2695,0,0,0,0,0,0,0,0,0,0,0,0,0,0,0,0,0,
0,0,0,0,0,0,2655,0,0,0,2658,2658,0,0,0,0,2658,0,0,0,0,0,0,0,0,0,0,0,0,0,0,0,0,0,0,0,2690,2691,2692,0,0,0,0,0,0,0,0,0,0,0,0,0,0,0,0,0,
0,0,0,0,0,0,0,0,0,0,0,0,0,0,0,0,0,0,0,0,0,0,0,0,0,0,0,0,0,0,0,0,0,0,0,0,0,0,0,0,0,0,0,0,0,0,0,0,0,0,0,0,0,0,0,0,
0,0,0,0,0,0,0,0,0,0,0,0,0,0,0,0,0,0,0,0,0,0,0,0,0,0,0,0,0,0,0,0,0,0,0,0,0,0,0,0,0,0,0,0,0,0,0,0,0,0,0,0,0,0,0,0,
0,0,0,0,0,0,2658,0,0,2671,2672,2670,2674,0,0,2672,2669,2669,2672,0,0,0,0,0,0,0,0,0,0,0,0,0,0,0,0,0,0,0,0,0,0,0,0,0,0,0,0,0,0,0,0,0,0,0,0,0,
0,0,0,0,0,0,0,0,0,0,0,0,0,0,0,0,0,0,0,0,0,0,0,0,0,0,0,0,0,0,0,0,0,0,0,0,0,0,0,0,0,0,0,0,0,0,0,0,0,0,0,0,0,0,0,0,
0,0,0,0,0,0,0,0,0,0,0,0,0,0,0,0,0,0,0,0,0,0,0,0,0,0,0,0,0,0,0,2739,0,0,0,0,0,0,0,0,0,0,0,0,0,0,0,0,0,0,0,0,0,0,0,0,
0,0,0,0,0,0,0,0,0,0,0,0,0,2648,0,0,0,0,0,2657,0,0,0,0,0,0,0,0,2632,0,0,2735,0,2658,0,0,0,0,0,0,0,0,0,0,0,0,0,0,0,0,0,0,0,0,0,0,
0,0,0,0,264,267,0,0,0,0,0,0,0,0,0,0,0,0,0,0,0,0,0,0,0,0,0,0,0,0,0,0,0,0,0,0,0,0,0,0,0,0,0,0,0,0,0,0,0,0,0,0,0,0,0,0,
0,0,0,0,0,0,0,0,0,0,0,0,0,0,0,0,0,0,0,0,0,0,0,0,0,0,0,0,0,0,0,0,264,0,0,0,0,0,0,0,0,0,0,0,0,0,0,0,0,0,0,0,0,0,0,0,
0,0,0,0,0,2639,0,0,0,0,2640,0,0,0,0,0,0,2646,0,0,0,0,0,0,0,0,0,0,0,0,0,0,0,0,2672,2671,2673,2672,2674,2674,2672,0,2659,0,0,0,0,0,0,0,0,0,0,0,0,0,
0,0,0,0,0,0,0,0,0,0,2639,0,0,0,0,0,2660,2661,2662,0,0,0,0,0,0,0,0,0,0,0,0,0,0,0,0,0,0,0,0,0,0,0,0,0,0,0,0,0,0,0,0,0,0,0,0,0,
0,0,0,0,0,0,0,0,0,0,2655,0,0,0,0,0,0,0,0,0,0,0,0,0,0,0,2657,0,0,0,0,0,0,0,0,0,0,0,0,0,0,0,0,0,0,0,0,0,0,0,0,0,0,0,0,0,
0,0,0,0,0,0,0,0,0,0,0,0,0,0,0,0,0,0,0,0,0,0,0,0,2658,2603,2603,0,0,0,0,0,0,0,0,0,0,0,0,0,0,0,0,0,0,0,0,0,0,0,0,0,0,0,0,0,
0,0,0,0,0,0,0,0,0,0,0,0,0,2631,2631,2631,2631,2631,0,0,0,0,0,0,2603,2603,2603,2658,2659,0,2606,0,0,0,0,0,0,0,0,0,0,0,0,0,0,0,0,0,0,0,0,0,0,0,0,0,
0,0,0,0,0,0,0,0,0,0,0,0,0,0,0,0,0,0,0,0,0,0,0,0,0,0,0,0,0,0,0,0,0,0,0,0,0,0,0,0,0,0,0,0,0,0,0,0,0,0,0,0,0,0,0,0,
0,0,0,0,0,0,0,0,0,0,0,0,0,0,0,0,0,0,0,0,0,0,0,0,0,0,0,0,0,0,0,0,0,0,0,0,0,0,0,0,0,0,0,0,0,0,0,0,0,0,0,0,0,0,0,0,
0,0,0,0,0,0,0,0,0,0,0,0,0,0,0,0,0,0,0,0,0,0,0,0,0,0,0,0,0,0,0,0,0,0,0,0,0,0,0,0,0,0,0,0,0,0,0,0,0,0,0,0,0,0,0,0,
0,0,0,0,0,0,0,0,0,0,0,0,0,0,0,0,0,0,0,0,0,0,0,0,0,0,0,0,0,0,0,0,0,0,0,0,0,0,0,0,0,0,0,0,0,0,0,0,0,0,0,0,0,0,0,0
</data>
    
 
  </layer>
  
 
  <objectgroup id="6" name="objetos">
    
  
    <object id="1" type="spwan" x="115" y="271">
      
   
      <point/>
      
  
    </object>
    
  
    <object id="2" type="spwan" x="1664" y="544">
      
   
      <properties>
        
    
        <property name="nome" value="direita"/>
        
   
      </properties>
      
   
      <point/>
      
  
    </object>
    
  
    <object id="8" type="inimigo" x="347" y="228">
      
   
      <properties>
        
    
        <property name="type" value="skeleton"/>
        
   
      </properties>
      
   
      <point/>
      
  
    </object>
    
  
    <object id="9" type="inimigo" x="550" y="224">
      
   
      <properties>
        
    
        <property name="patrulha_dir" type="int" value="1"/>
        
    
        <property name="patrulha_esq" type="int" value="1"/>
        
    
        <property name="tipo" value="skeleton"/>
        
   
      </properties>
      
   
      <point/>
      
  
    </object>
    
 
  </objectgroup>
  

</map>

