<?xml version="1.0" encoding="UTF-8"?>
<map version="1.10" tiledversion="1.12.2" orientation="orthogonal" renderorder="right-down" width="80" height="23" tilewidth="32" tileheight="32" infinite="0" nextlayerid="5" nextobjectid="4">
 <tileset firstgid="1" name="parede_variantes" tilewidth="32" tileheight="32" tilecount="96" columns="12">
  <image source="../tileset/calabouco/parede_variantes.png" width="384" height="256"/>
 </tileset>
 <tileset firstgid="97" name="chao_variantes" tilewidth="32" tileheight="32" tilecount="96" columns="12">
  <image source="../tileset/calabouco/chao_variantes.png" width="384" height="256"/>
 </tileset>
 <tileset firstgid="193" name="tileset" tilewidth="32" tileheight="32" tilecount="20" columns="4">
  <image source="../tileset/calabouco/tileset.png" width="128" height="160"/>
 </tileset>
 <tileset firstgid="213" name="The Sidescroller's Dungeon Tiles 32x32" tilewidth="32" tileheight="32" tilecount="399" columns="21">
  <image source="../tileset/calabouco/The Sidescroller's Dungeon Tiles 32x32.png" width="672" height="608"/>
 </tileset>
 <layer id="1" name="fundo" width="80" height="23">
  <data encoding="csv">
184,109,110,188,161,147,117,103,138,150,145,98,150,158,172,162,113,169,189,143,167,127,129,126,134,186,147,156,182,174,130,187,119,137,154,130,167,140,159,114,125,134,113,184,141,186,185,110,148,138,147,182,190,177,157,114,147,112,103,126,183,185,100,109,103,137,152,175,133,133,145,160,124,162,115,185,114,111,136,186,
112,108,165,131,175,187,161,190,108,162,151,106,179,162,143,155,135,121,120,128,186,114,141,129,143,115,171,170,106,153,114,141,110,143,145,117,164,187,130,97,183,114,101,123,168,165,118,119,181,191,141,177,116,109,124,172,103,172,157,124,101,135,160,176,97,159,170,113,140,183,186,127,174,104,123,121,182,123,183,159,
165,107,186,186,178,191,108,167,148,101,143,165,160,115,148,153,116,187,122,144,147,177,162,190,132,98,153,110,138,123,188,150,126,101,181,142,173,129,174,176,121,192,132,171,139,135,104,138,110,97,158,112,113,151,150,135,151,113,103,114,170,176,124,184,122,133,151,186,109,124,160,99,158,145,133,121,103,173,164,148,
190,154,131,182,104,157,184,180,118,146,159,158,111,108,136,126,178,184,184,107,112,141,183,112,113,188,191,168,114,129,178,174,192,148,118,148,136,115,142,108,160,126,127,180,134,101,153,130,137,178,139,114,137,116,183,139,137,138,115,128,164,116,147,128,136,160,149,172,171,151,101,139,164,171,173,176,122,183,137,109,
144,143,97,159,182,109,191,122,168,112,160,178,183,101,145,151,177,185,184,100,189,179,136,118,185,152,167,118,111,142,154,164,187,154,114,149,109,110,107,164,182,144,186,172,149,157,163,107,100,159,149,140,164,158,136,187,152,136,162,184,134,104,184,172,158,116,151,97,110,122,163,161,150,139,137,114,138,169,100,138,
176,119,172,132,163,143,123,152,125,144,170,174,162,188,108,162,149,178,101,175,105,180,103,167,144,131,151,131,134,116,187,161,184,109,113,176,179,157,151,133,113,157,118,118,175,112,175,121,126,158,122,138,101,138,124,164,151,159,171,136,151,158,162,111,173,104,147,133,170,157,173,113,115,135,127,103,163,135,133,183,
130,186,188,124,137,115,168,173,170,184,168,143,146,176,156,145,104,131,121,184,106,150,118,156,178,140,141,147,148,167,184,147,155,161,138,189,163,155,131,146,146,129,171,175,142,142,146,166,150,146,189,173,97,175,188,137,114,164,162,181,125,170,137,152,161,170,97,126,135,140,176,159,98,102,102,185,121,125,121,161,
111,109,170,174,142,133,154,139,129,116,182,129,115,148,122,150,159,129,146,115,108,163,180,169,120,159,171,111,157,153,100,186,176,116,143,152,177,131,171,142,154,178,102,184,147,145,181,174,125,147,159,183,115,100,139,149,147,137,187,148,101,184,152,164,176,124,161,139,121,170,162,112,138,181,110,136,160,101,102,163,
152,177,180,123,109,192,182,157,99,173,108,183,120,181,179,118,126,104,165,131,105,101,126,149,122,149,105,107,135,115,179,101,173,120,137,179,133,110,110,145,166,116,172,151,153,108,159,148,172,168,138,173,182,122,176,169,158,127,99,173,184,164,147,145,98,174,184,116,115,104,183,133,102,158,147,104,184,145,161,113,
186,190,99,129,100,175,107,106,188,107,107,116,187,150,168,117,161,126,153,122,175,118,99,186,111,154,135,162,141,103,187,144,149,104,110,131,112,141,137,128,118,140,128,121,114,169,139,98,187,151,146,183,122,161,136,185,162,145,174,100,184,186,163,115,110,148,183,97,125,172,122,135,172,115,111,104,137,147,109,113,
145,123,104,100,156,160,133,141,170,153,116,133,104,161,162,176,125,146,192,173,156,165,145,166,141,145,139,105,159,106,172,120,158,168,156,160,102,139,128,147,191,113,166,145,177,152,129,125,172,126,151,110,157,122,114,113,102,151,102,185,125,152,135,114,185,115,160,113,148,175,139,136,140,185,100,138,137,149,148,182,
139,172,177,151,167,173,186,112,152,161,154,137,131,131,177,189,162,180,111,184,131,151,173,181,109,120,183,188,167,144,138,172,184,184,152,103,112,103,173,192,132,113,121,127,139,176,139,190,151,151,159,109,152,125,103,147,134,157,152,110,181,123,157,124,186,121,123,159,121,162,125,164,162,135,150,181,148,148,163,185,
143,147,140,154,181,103,103,128,185,131,134,123,170,153,150,120,120,158,134,158,192,192,168,103,188,104,160,105,126,142,129,180,154,151,127,171,157,182,182,168,159,163,120,186,134,141,128,163,132,119,149,100,178,165,134,128,136,124,182,147,112,98,124,157,125,139,125,162,140,128,136,172,102,104,104,97,174,187,136,151,
189,133,162,141,108,162,128,126,139,129,152,107,111,146,127,183,153,181,161,177,123,136,156,141,173,141,146,113,109,100,151,116,158,141,189,179,150,116,132,173,120,101,122,162,97,143,184,166,169,145,148,174,127,110,127,172,128,140,151,99,138,128,145,145,99,126,109,136,145,109,186,145,121,114,133,182,112,124,126,103,
141,122,125,102,156,134,190,148,109,174,124,107,98,110,102,182,166,121,164,184,171,177,150,107,120,118,190,152,124,125,142,148,179,166,185,131,181,146,147,160,112,142,102,185,162,160,121,97,103,145,183,152,168,119,146,176,171,137,134,145,162,99,126,99,170,100,145,102,104,162,151,183,150,175,173,137,163,128,125,157,
130,150,181,155,101,112,110,111,144,175,186,186,149,151,190,172,129,116,128,181,177,162,172,116,173,172,105,156,136,137,132,132,103,184,116,123,128,121,105,152,176,151,179,189,155,176,173,148,189,121,124,159,172,187,185,125,188,114,133,157,109,103,102,145,113,173,150,149,145,176,124,136,181,160,109,171,151,176,110,175,
144,98,159,144,124,129,99,168,179,172,180,147,146,150,157,168,165,154,163,120,102,144,136,189,139,107,180,173,137,172,181,132,192,173,161,128,126,162,152,175,119,142,145,152,113,101,101,187,116,127,189,174,138,105,177,113,110,181,174,184,145,124,140,115,121,152,113,101,115,173,151,150,175,171,149,183,149,136,186,173,
105,139,136,168,123,182,99,153,178,105,186,185,163,184,127,118,149,166,109,138,187,119,137,121,115,142,183,124,120,139,153,104,165,111,125,169,115,159,169,104,114,100,141,190,150,164,138,132,118,115,119,133,158,178,113,124,137,150,176,188,139,110,169,172,170,135,181,186,163,97,149,122,151,188,140,122,102,147,171,124,
178,147,122,176,142,141,191,134,181,131,145,108,107,184,180,116,105,107,175,133,121,131,167,127,166,165,117,162,169,122,99,151,102,135,129,162,118,153,104,130,154,188,109,120,115,97,112,189,171,142,171,140,111,147,184,175,176,160,97,126,163,124,185,146,171,113,116,164,152,98,109,123,104,113,170,126,104,183,110,137,
137,133,129,109,109,148,183,178,128,172,124,156,167,99,147,139,145,161,152,172,173,110,175,120,119,152,132,142,171,187,97,184,156,185,105,162,139,119,144,170,105,175,132,109,188,108,164,168,114,159,118,109,152,131,158,183,176,116,101,127,137,128,148,103,121,113,146,174,125,139,149,112,169,100,161,112,103,101,159,116,
176,132,158,118,179,150,155,174,186,140,182,104,104,160,164,159,143,123,192,105,142,162,105,166,152,179,122,118,139,102,171,172,180,192,126,136,162,174,129,167,135,112,139,122,176,119,179,128,189,146,131,124,155,160,145,140,133,133,170,104,157,161,148,159,150,139,138,138,169,110,138,109,183,161,137,150,125,127,122,116,
111,145,120,102,104,185,113,97,107,173,157,153,148,176,145,124,186,125,133,165,169,166,108,188,186,149,124,103,117,143,156,105,132,170,131,123,97,124,119,117,98,126,120,134,118,174,178,103,137,102,113,177,161,103,136,176,102,159,188,158,134,102,139,181,172,128,161,100,122,102,125,164,139,175,169,148,139,183,114,100,
105,164,161,100,113,151,97,116,118,169,106,154,136,107,105,145,174,178,170,181,172,137,189,131,129,144,170,110,133,152,131,174,134,136,118,181,112,148,133,189,176,191,162,160,98,146,127,128,122,192,133,190,136,116,113,138,150,170,139,139,99,186,170,181,158,135,181,113,184,148,161,134,157,127,163,136,187,99,184,185
</data>
 </layer>
 <layer id="3" name="colisao" width="80" height="23">
  <data encoding="csv">
0,0,0,0,0,0,0,0,0,0,0,0,0,0,0,0,0,0,0,0,0,0,0,0,0,0,0,0,0,0,0,0,0,0,0,0,0,0,0,0,0,0,0,0,0,0,0,0,0,0,0,0,0,0,0,0,0,0,0,0,0,0,0,0,0,0,0,0,0,0,0,0,0,0,0,0,0,0,0,0,
0,0,0,0,0,0,0,0,0,0,0,0,0,0,0,0,0,0,0,0,0,0,0,0,0,0,0,0,0,0,0,0,0,0,0,0,0,0,0,0,0,0,0,0,0,0,0,0,0,0,0,0,0,0,0,0,0,0,0,0,0,0,0,0,0,0,0,0,0,0,0,0,0,0,0,0,0,0,0,0,
0,0,0,0,0,0,0,0,0,0,0,0,0,0,0,0,0,0,0,0,0,0,0,0,0,0,0,0,0,0,0,0,0,0,0,0,0,0,0,0,0,0,0,0,0,0,0,0,0,0,0,0,0,0,0,0,0,0,0,17,51,10,24,0,0,0,0,0,0,0,0,0,0,0,0,0,0,0,0,0,
0,0,0,0,0,0,0,0,0,0,0,0,0,0,0,0,0,0,0,0,0,0,0,0,9,3,0,52,33,38,2,46,42,1,34,27,44,53,16,52,16,51,45,44,28,38,26,2,18,58,13,40,18,58,49,26,33,22,52,20,15,19,36,20,25,49,11,22,6,49,35,28,25,43,48,46,31,34,10,48,
0,0,0,0,0,0,0,0,0,0,0,0,0,0,0,0,0,0,0,0,50,36,29,56,46,4,46,41,20,22,38,17,31,12,10,2,15,4,53,52,27,2,10,12,53,22,11,3,50,42,29,50,25,19,23,60,11,14,36,52,46,10,50,18,32,10,43,48,20,58,42,49,11,2,17,46,17,25,59,59,
4,5,9,2,58,6,10,24,4,34,18,40,6,50,47,42,47,20,49,45,59,49,4,58,38,41,27,27,15,55,41,16,28,6,37,53,26,46,26,39,8,36,17,37,40,39,52,40,43,8,59,33,12,24,41,22,10,2,22,36,20,0,0,0,0,0,0,0,0,0,0,0,50,3,12,37,49,50,30,33,
23,37,38,5,48,54,45,35,20,53,57,59,32,42,3,13,36,0,0,0,0,48,7,10,4,45,45,37,0,0,0,0,41,9,49,59,9,29,28,43,50,0,0,0,0,0,56,27,14,4,18,0,0,0,0,0,0,0,0,0,0,0,0,0,0,0,0,0,0,0,0,0,0,0,0,0,0,0,3,48,
33,37,13,5,27,31,57,0,0,0,0,0,0,0,0,0,0,0,0,0,0,0,45,15,0,0,0,0,0,0,0,0,0,0,0,0,0,0,0,0,0,0,0,0,0,0,0,0,0,3,43,0,0,0,0,0,0,0,0,0,0,0,0,0,0,0,0,0,0,0,0,0,0,0,0,0,0,0,18,9,
39,35,12,60,8,58,0,0,0,0,0,0,0,0,0,0,0,0,0,0,0,0,0,0,0,0,0,0,0,0,0,0,0,0,0,0,0,0,0,0,0,0,0,0,0,0,0,0,0,0,0,0,0,0,0,0,0,0,0,0,0,0,0,0,0,0,0,0,0,0,0,0,0,0,0,0,0,0,36,54,
23,24,21,18,33,0,0,0,0,0,0,0,0,0,0,0,0,0,0,0,0,0,0,0,0,0,0,0,0,0,0,0,0,0,0,0,0,0,0,0,0,0,0,0,0,0,0,0,0,0,0,0,0,0,0,0,0,0,0,0,0,0,0,0,0,0,0,0,0,0,0,0,0,0,0,0,0,0,0,0,
4,47,19,3,22,0,0,0,0,0,0,0,0,0,0,0,0,0,0,0,0,0,0,0,0,0,0,0,0,0,0,0,0,0,0,0,0,0,0,0,0,0,0,0,0,0,0,0,0,0,0,0,0,0,0,0,0,0,0,0,0,0,0,0,0,0,0,0,0,0,0,0,0,0,0,0,0,0,0,0,
36,2,0,0,0,0,0,0,0,0,0,0,0,0,0,0,0,0,0,0,0,0,0,0,0,0,0,0,0,0,0,0,0,0,0,0,0,0,0,0,0,0,0,0,0,0,0,0,0,0,0,0,0,0,0,0,0,0,0,0,0,0,0,0,0,0,0,0,0,0,0,0,0,0,0,0,0,0,0,0,
17,58,0,0,0,0,0,0,0,0,0,0,0,0,0,0,0,0,0,0,0,0,0,0,0,0,0,0,0,0,0,0,0,0,0,0,0,0,0,0,0,0,0,0,0,0,0,0,0,0,0,0,0,0,0,0,0,0,0,0,0,0,0,0,0,0,0,0,0,0,0,0,0,0,0,0,0,0,0,0,
3,36,0,0,0,0,0,0,0,0,0,0,0,0,0,0,0,0,0,0,0,0,0,0,0,0,0,0,0,0,0,0,0,0,0,0,0,0,0,0,0,0,0,0,0,0,0,0,0,0,0,0,0,0,0,0,0,0,0,0,0,0,0,0,0,0,0,0,18,0,0,0,0,0,0,0,0,0,0,0,
9,10,0,0,0,0,0,0,0,0,0,0,0,0,0,0,0,0,0,0,0,0,0,0,0,0,0,0,0,0,0,0,0,0,0,0,0,0,0,0,0,0,0,0,0,0,0,0,0,0,0,0,35,13,23,56,55,0,0,0,33,59,12,0,0,0,0,13,27,13,0,0,0,0,0,0,0,0,0,0,
51,42,0,0,0,0,0,0,0,0,0,0,0,0,0,0,0,0,0,0,0,0,0,0,0,0,0,0,0,0,0,0,0,0,0,0,0,0,0,0,0,0,29,45,0,0,0,0,0,0,0,27,60,43,0,0,0,0,0,0,0,0,55,0,0,0,0,0,50,51,0,0,0,0,0,0,0,0,0,0,
24,29,0,0,0,0,0,0,0,0,0,0,0,0,0,0,0,0,0,0,0,0,0,0,0,0,0,0,0,0,0,0,0,0,0,0,0,0,0,0,29,29,29,0,0,0,0,0,0,0,0,45,47,48,0,0,0,0,0,0,0,0,24,46,0,0,0,39,27,0,0,0,3,8,38,58,48,19,16,58,
8,22,0,0,0,0,0,0,0,0,0,0,0,0,0,0,0,0,0,0,0,0,0,0,0,0,0,0,0,0,0,0,0,0,0,0,0,0,0,1,5,47,38,0,0,0,0,29,0,0,0,0,41,31,0,0,0,0,0,0,0,0,33,14,0,0,0,40,24,0,0,0,0,0,18,38,35,2,41,30,
21,49,0,0,0,0,0,0,0,0,0,0,0,0,0,0,0,0,19,4,7,38,38,18,47,39,22,0,0,0,0,0,0,0,0,0,0,0,28,35,33,19,0,0,0,0,29,29,0,0,0,0,0,27,0,0,0,0,0,0,0,0,0,2,0,0,0,0,22,0,0,0,0,0,15,44,55,48,28,15,
0,0,0,0,0,0,0,0,0,0,0,0,0,0,49,16,60,19,36,32,39,36,47,59,16,56,32,35,32,0,0,0,0,0,0,0,0,44,39,20,18,0,0,0,0,29,29,29,29,0,0,2,23,57,0,0,0,0,0,0,0,0,0,29,0,0,0,0,55,0,0,0,0,0,0,47,26,35,54,30,
0,0,0,0,0,0,0,0,0,0,0,0,0,50,32,36,35,38,32,32,48,22,59,52,5,41,2,49,39,16,29,42,0,0,0,0,32,29,39,30,12,17,0,0,0,0,29,29,29,29,0,33,36,48,55,0,0,0,0,0,0,50,27,14,0,0,0,0,16,0,0,0,0,0,0,5,49,58,5,22,
28,9,53,7,12,49,10,17,32,52,30,13,48,19,38,26,51,16,8,18,51,58,32,40,56,5,15,41,25,24,44,14,27,51,34,46,26,27,58,60,36,4,35,56,53,32,58,44,24,51,21,45,55,15,20,9,57,32,49,19,33,55,32,13,29,22,54,12,41,50,8,56,17,32,41,42,31,17,8,35,
40,35,53,20,35,38,44,43,56,9,19,15,55,5,45,10,43,43,22,8,57,16,28,36,48,42,60,53,9,26,36,6,20,41,44,47,60,9,60,11,7,29,21,1,15,52,2,60,15,46,42,38,46,25,7,9,12,27,53,27,55,41,56,49,57,6,35,12,36,1,57,30,7,51,41,11,8,16,14,32
</data>
 </layer>
 <objectgroup id="4" name="objetos">
  <object id="1" type="spwan" x="32" y="652">
   <point/>
  </object>
  <object id="2" type="bau" x="2449" y="511">
   <properties>
    <property name="id_item" type="int" value="1"/>
   </properties>
   <point/>
  </object>
  <object id="3" type="inimigo" x="1859" y="628">
   <properties>
    <property name="patrulha_dir" type="int" value="30"/>
    <property name="patrulha_esq" type="int" value="30"/>
    <property name="tipo" value="skeleton"/>
   </properties>
   <point/>
  </object>
 </objectgroup>
</map>
